src/assets/icon/hero-razgovori.svg

<svg width="24" height="24" viewBox="0 0 24 24" fill="none" xmlns="http://www.w3.org/2000/svg">
<g id="hero, razgovori">
<g id="Group">
<path id="Vector" d="M8 10H8.01H8ZM12 10H12.01H12ZM16 10H16.01H16ZM9 16H5C4.46957 16 3.96086 15.7893 3.58579 15.4142C3.21071 15.0391 3 14.5304 3 14V6C3 5.46957 3.21071 4.96086 3.58579 4.58579C3.96086 4.21071 4.46957 4 5 4H19C19.5304 4 20.0391 4.21071 20.4142 4.58579C20.7893 4.96086 21 5.46957 21 6V14C21 14.5304 20.7893 15.0391 20.4142 15.4142C20.0391 15.7893 19.5304 16 19 16H14L9 21V16Z" stroke="#C4C4C4" stroke-width="2" stroke-linecap="round" stroke-linejoin="round"/>
</g>
</g>
</svg>

<svg class="sidebar-icon mr-m" xmlns="http://www.w3.org/2000/svg" fill="none" viewBox="0 0 24 24" stroke="currentColor">
                <path stroke-linecap="round" stroke-linejoin="round" stroke-width="2"
                  d="M8 10h.01M12 10h.01M16 10h.01M9 16H5a2 2 0 01-2-2V6a2 2 0 012-2h14a2 2 0 012 2v8a2 2 0 01-2 2h-5l-5 5v-5z" />
              </svg>
